src/assets/star.svg

<svg fill="none" height="18" viewBox="0 0 18 18" width="18" xmlns="http://www.w3.org/2000/svg"><path d="m8.54127 1.05787c.17408-.401443.74338-.401444.91746 0l2.13937 4.93365c.0725.16707.23.28155.4113.29882l5.3533.51011c.4356.04151.6115.58294.2835.87255l-4.031 3.5593c-.1366.1205-.1967.3057-.1571.4835l1.1691 5.2489c.0951.4271-.3655.7617-.7423.5393l-4.6307-2.7339c-.15682-.0926-.35158-.0926-.5084 0l-4.63074 2.7339c-.37679.2224-.83736-.1122-.74223-.5393l1.16911-5.2489c.03959-.1778-.02059-.363-.1571-.4835l-4.031069-3.5593c-.3279984-.28961-.152076-.83104.283509-.87255l5.35329-.51011c.18129-.01727.33885-.13175.4113-.29882z" fill="#ffc428"/></svg>

<svg width="18" height="18" viewBox="0 0 18 18" fill="none" xmlns="http://www.w3.org/2000/svg">
<path d="M8.54127 1.05787C8.71535 0.656427 9.28465 0.656426 9.45873 1.05787L11.5981 5.99152C11.6706 6.15859 11.8281 6.27307 12.0094 6.29034L17.3627 6.80045C17.7983 6.84196 17.9742 7.38339 17.6462 7.673L13.6152 11.2323C13.4786 11.3528 13.4185 11.538 13.4581 11.7158L14.6272 16.9647C14.7223 17.3918 14.2617 17.7264 13.8849 17.504L9.2542 14.7701C9.09738 14.6775 8.90262 14.6775 8.7458 14.7701L4.11506 17.504C3.73827 17.7264 3.2777 17.3918 3.37283 16.9647L4.54194 11.7158C4.58153 11.538 4.52135 11.3528 4.38484 11.2323L0.353771 7.673C0.0257726 7.38339 0.201695 6.84196 0.63728 6.80045L5.99057 6.29034C6.17186 6.27307 6.32942 6.15859 6.40187 5.99152L8.54127 1.05787Z" fill="#FFC428"/>
</svg>
